X:17
T:Schottis fr{\aa}n Idre
R:schottis
A:Idre, Dalarna
Z:id:hn-schottis-17
M:C|
K:D
D2FA d2d2|FAde f2f2|gfed c2Bc|d2AG FED2|
D2FA d2d2|FAde f2f2|gfed c2Bc|d2dc d4:|
|:a2a2 g2eg|=f2ed e4|=f2ag f2ed|cded c2A2|
a2a2 g2eg|=f2ed e4|=f2ag f2ed|cdec d4:|
